svg/emoji_u1fa83.svg

<?xml version="1.0" encoding="UTF-8" standalone="no"?>
<!-- Generator: Adobe Illustrator 25.2.3, SVG Export Plug-In . SVG Version: 6.00 Build 0)  -->

<svg
   version="1.1"
   id="Layer_3"
   x="0px"
   y="0px"
   viewBox="0 0 128 128"
   style="enable-background:new 0 0 128 128;"
   xml:space="preserve"
   sodipodi:docname="emoji_u1fa83.svg"
   inkscape:version="1.2.2 (732a01da63, 2022-12-09)"
   xmlns:inkscape="http://www.inkscape.org/namespaces/inkscape"
   xmlns:sodipodi="http://sodipodi.sourceforge.net/DTD/sodipodi-0.dtd"
   xmlns="http://www.w3.org/2000/svg"
   xmlns:svg="http://www.w3.org/2000/svg"><defs
   id="defs34477" /><sodipodi:namedview
   id="namedview34475"
   pagecolor="#ffffff"
   bordercolor="#000000"
   borderopacity="0.25"
   inkscape:showpageshadow="2"
   inkscape:pageopacity="0.0"
   inkscape:pagecheckerboard="0"
   inkscape:deskcolor="#d1d1d1"
   showgrid="false"
   inkscape:zoom="2.1210938"
   inkscape:cx="59.403315"
   inkscape:cy="99.948435"
   inkscape:window-width="1366"
   inkscape:window-height="697"
   inkscape:window-x="-8"
   inkscape:window-y="-8"
   inkscape:window-maximized="1"
   inkscape:current-layer="Layer_3" />
<g
   id="g34472">
	
		<radialGradient
   id="SVGID_1_"
   cx="20.3912"
   cy="112.5229"
   r="86.7198"
   gradientTransform="matrix(0.9546 -0.298 0.2136 0.684 -23.1041 41.6348)"
   gradientUnits="userSpaceOnUse">
		<stop
   offset="0.38980001"
   style="stop-color:#b0bec4;stop-opacity:0.50588238;"
   id="stop34442" />
		<stop
   offset="1"
   style="stop-color:#B0BEC5;stop-opacity:0"
   id="stop34444" />
	</radialGradient>
	<path
   style="fill:#b1bfc4;fill-opacity:0.35686275"
   d="M30.48,94.11c-13.61,7.9-19.63,6.64-7.21-17.09C29.6,64.91,41.82,50.5,55.04,38.38   l-8.46-5.83c-9.78,9-19.94,20.73-30.27,36.06c-30.72,45.55,5.39,49.45,20.86,44.3c35.23-11.72,61.38-50.06,61.38-50.06L79.04,45.52   C79.04,45.52,47.22,84.39,30.48,94.11z"
   id="path34447" />
	<linearGradient
   id="SVGID_2_"
   gradientUnits="userSpaceOnUse"
   x1="64.6057"
   y1="41.2847"
   x2="93.6188"
   y2="-1.1041">
		<stop
   offset="0"
   style="stop-color:#B0BEC5;stop-opacity:0"
   id="stop34449" />
		<stop
   offset="1"
   style="stop-color:#B0BEC5"
   id="stop34451" />
	</linearGradient>
	<path
   style="fill:#b1bfc4;fill-opacity:0.35686275"
   d="M42.8,50.59C55.87,36.4,71.93,23.16,84.82,16.67c15.33-7.71,19.53-6.64,17.73,1.68   c-1.16,5.36-3.62,10.24-3.62,10.24s6.8-4.64,10.57-14.04c3.82-9.51-6.26-11.77-18.24-8.28c-16.35,4.76-35.84,15.05-56.62,38.48   L42.8,50.59z"
   id="path34454" />
	<path
   id="path34456"
   style="fill:#a65f3e;fill-opacity:1"
   d="M 22.199219 31.300781 C 18.949222 31.250781 16.129296 33.260394 15.029297 36.150391 C 15.110325 36.973463 15.363612 37.745142 15.708984 38.472656 C 15.348204 37.772757 15.103104 36.99931 15.019531 36.150391 C 14.739532 36.88039 14.569297 37.660704 14.529297 38.470703 C 14.329297 42.510699 17.349145 45.989375 21.369141 46.359375 L 70.980469 50.949219 C 81.680458 51.939218 90.709378 59.290557 93.859375 69.560547 L 108.61914 117.80078 C 109.81914 121.73078 113.88914 124.01953 117.86914 123.01953 C 118.82823 122.77976 119.6878 122.36153 120.44727 121.82227 C 120.44799 121.82175 120.4485 121.82082 120.44922 121.82031 C 120.45315 121.81977 120.457 121.82086 120.46094 121.82031 C 122.90094 120.08031 124.19976 116.99062 123.50977 113.89062 L 108.56055 46.339844 C 106.79055 38.339852 99.760304 32.600937 91.570312 32.460938 L 22.199219 31.300781 z " />
	
	<path
   id="path34460"
   style="fill:#ffca28;fill-opacity:1"
   d="M 22.199219 31.300781 C 18.949222 31.250781 16.129296 33.260394 15.029297 36.150391 C 14.749297 36.88039 14.579062 37.660704 14.539062 38.470703 C 14.339063 42.510699 17.360863 45.989375 21.380859 46.359375 L 37.220703 47.830078 C 38.090702 47.150079 38.839454 46.109374 39.439453 44.859375 L 39.640625 44.410156 L 39.632812 44.410156 C 40.376539 42.672803 40.830078 40.543084 40.830078 38.220703 C 40.820078 35.710706 40.299218 33.399842 39.449219 31.589844 L 22.199219 31.300781 z " />
	
	<path
   id="path34464"
   style="fill:#ffca28;fill-opacity:1"
   d="M 116.60547 96.832031 C 115.46297 96.827031 114.25453 96.944219 113.01953 97.199219 C 110.84953 97.649218 108.76953 98.580079 107.01953 99.830078 L 107.02344 99.841797 C 105.84009 100.69911 104.80581 101.68578 104.0293 102.80078 L 108.61914 117.81055 C 109.81914 121.74054 113.88914 124.0293 117.86914 123.0293 C 118.82914 122.7893 119.68922 122.37008 120.44922 121.83008 C 120.44922 121.83008 120.41223 121.82573 120.39844 121.82422 C 120.40895 121.8228 120.41916 121.82179 120.42969 121.82031 C 122.89969 120.08031 124.19976 116.99062 123.50977 113.89062 L 119.82031 97.240234 L 119.80078 97.199219 C 118.82578 96.964219 117.74797 96.837031 116.60547 96.832031 z " />
	
	
	
</g>
</svg>

<?xml version="1.0" encoding="utf-8"?>
<!-- Generator: Adobe Illustrator 25.2.3, SVG Export Plug-In . SVG Version: 6.00 Build 0)  -->
<svg version="1.1" id="Layer_3" xmlns="http://www.w3.org/2000/svg" xmlns:xlink="http://www.w3.org/1999/xlink" x="0" y="0"
	 viewBox="0 0 128 128" style="enable-background:new 0 0 128 128;" xml:space="preserve">
<g>
	
		<radialGradient id="SVGID_1_" cx="20.3912" cy="112.5229" r="86.7198" gradientTransform="matrix(0.9546 -0.298 0.2136 0.684 -23.1041 41.6348)" gradientUnits="userSpaceOnUse">
		<stop  offset="0.3898" style="stop-color:#B0BEC5"/>
		<stop  offset="1" style="stop-color:#B0BEC5;stop-opacity:0"/>
	</radialGradient>
	<path style="fill:url(#SVGID_1_);" d="M30.48,94.11c-13.61,7.9-19.63,6.64-7.21-17.09C29.6,64.91,41.82,50.5,55.04,38.38
		l-8.46-5.83c-9.78,9-19.94,20.73-30.27,36.06c-30.72,45.55,5.39,49.45,20.86,44.3c35.23-11.72,61.38-50.06,61.38-50.06L79.04,45.52
		C79.04,45.52,47.22,84.39,30.48,94.11z"/>
	<linearGradient id="SVGID_2_" gradientUnits="userSpaceOnUse" x1="64.6057" y1="41.2847" x2="93.6188" y2="-1.1041">
		<stop  offset="0" style="stop-color:#B0BEC5;stop-opacity:0"/>
		<stop  offset="1" style="stop-color:#B0BEC5"/>
	</linearGradient>
	<path style="fill:url(#SVGID_2_);" d="M42.8,50.59C55.87,36.4,71.93,23.16,84.82,16.67c15.33-7.71,19.53-6.64,17.73,1.68
		c-1.16,5.36-3.62,10.24-3.62,10.24s6.8-4.64,10.57-14.04c3.82-9.51-6.26-11.77-18.24-8.28c-16.35,4.76-35.84,15.05-56.62,38.48
		L42.8,50.59z"/>
	<path style="fill:#874D36;" d="M112.24,114.65L97.82,66.38C94.68,56.11,84.8,48.23,74.1,47.24l-51.32-4.5
		c-3.81-0.35-7.38-2.73-7.76-6.59c-0.28,0.73-0.45,1.51-0.49,2.32c-0.2,4.04,2.82,7.52,6.84,7.89l49.61,4.59
		c10.7,0.99,19.73,8.34,22.88,18.61l14.76,48.24c1.2,3.93,5.27,6.22,9.25,5.22h0c0.96-0.24,1.82-0.66,2.58-1.2
		C116.1,122.44,113.36,118.3,112.24,114.65z"/>
	<path style="fill:#A65F3E;" d="M123.51,113.89l-14.95-67.55c-1.77-8-8.8-13.74-16.99-13.88L22.2,31.3
		c-3.25-0.05-6.07,1.96-7.17,4.85c0.38,3.86,3.99,6.86,7.8,7.21l51.16,4.59c10.7,0.99,19.73,8.34,22.88,18.61l14.76,48.24
		c1.12,3.65,4.48,7.63,8.83,7.02C122.9,120.08,124.2,116.99,123.51,113.89z"/>
	<path style="fill:#E2A610;" d="M15.03,36.15c-0.28,0.73-0.45,1.51-0.49,2.32c-0.2,4.04,2.82,7.52,6.84,7.89l15.84,1.47
		c0.87-0.68,1.62-1.72,2.22-2.97l0.2-0.45l-16.61-1.63c-1.9-0.18-3.97-1.35-5.4-2.63C16.21,38.87,15.03,36.15,15.03,36.15z"/>
	<path style="fill:#FFCA28;" d="M39.45,31.59L22.2,31.3c-3.25-0.05-6.07,1.96-7.17,4.85c0.38,3.86,3.99,6.86,7.8,7.21l16.61,1.49
		c0.86-1.81,1.39-4.11,1.39-6.63C40.82,35.71,40.3,33.4,39.45,31.59z"/>
	<path style="fill:#E2A610;" d="M112.24,114.65l-4.87-15.05l-0.33,0.23c-1.19,0.86-2.23,1.85-3.01,2.97l4.59,15.01
		c1.2,3.93,5.27,6.22,9.25,5.22c0.96-0.24,1.82-0.66,2.58-1.2c0,0-2.85-0.26-5.09-2.52C113.97,117.9,112.78,116.41,112.24,114.65z"
		/>
	<path style="fill:#FFCA28;" d="M123.51,113.89l-3.69-16.65l-0.02-0.04c-1.95-0.47-4.31-0.51-6.78,0c-2.17,0.45-4.25,1.38-6,2.63
		l4.58,14.97c1.12,3.65,4.48,7.63,8.83,7.02C122.9,120.08,124.2,116.99,123.51,113.89z"/>
	<path style="fill:#C87D5E;" d="M24.59,33.3c-2.08,0.02-3.71,0.72-3.68,2.01c0.03,1.22,0.41,2.4,4.45,2.37l69.46-0.46
		c0.71,0,0.89-0.98,0.23-1.25c-1.48-0.6-3.84-1.19-7.37-1.23C80.49,34.66,27.41,33.27,24.59,33.3z"/>
	<path style="fill:#FFE36C;" d="M40.79,37.58c-0.05-1.41-0.26-2.74-0.6-3.94c-8.34-0.2-14.67-0.34-15.59-0.33
		c-2.08,0.02-3.71,0.72-3.68,2.01c0.03,1.22,0.41,2.4,4.45,2.37L40.79,37.58z"/>
</g>
</svg>
